X:1
T:Title
%%score ( 1 2 ) { 3 | 4 }
L:1/8
Q:1/4=90
M:4/4
K:C
V:1 treble nm="Grand Piano, Soprano"
V:2 treble 
V:3 treble nm="Choir Pad, Peace, Be Still"
V:4 bass 
V:1
 [CE][DF][EG][EG] [EG][EG][EG][EG] | [Ec][GB][GB][FA] [FA][CF] [FA]2 | %2
w: By~Anthony~Johnson~Showalter * * * * * * *||
 [B,D][CE][DF][DF] [DF][DF][FB][FB] | [FA][FB] A4 G2 | [CE][DF][EG][EG] [EG][EG][EG][EG] | %5
w: |||
 [Ec][GB][GB][FA] [FA][CF] [FA]2 | [Dd][Dc][DB][DB] [DB][DB][DB][DG] | [FA][FB] [Ec]6 | %8
w: |||
 z2 [EG]2- [EG][CE] [EG]2 | z2 [FA]2- [FA][CF] [FA]2 | [Dd][Dc][DB][DB] [DB][DB][DB][DG] | %11
w: |||
 [FA][FB] A4 G2 | [CE][DF][EG][EG] [EG][FA] [EG]2 | [Ec][Ge][Ge][Fd] [Fd][FA] [Fd]2 | %14
w: |||
 [Dd][Dc][DB][DB] [DB][DB][DB][DG] | [FA][FB] [Ec]6 | z2 [EG]2- [EG][CE] [EG]2 | %17
w: |||
 z2 [FA]2- [FA][CF] [FA]2 | z2 G4- [EG]2 | [FG]2 [EG]6- | [EG]2 z2 z4 |] %21
w: ||||
V:2
 x8 | x8 | x8 | z2 E6 | x8 | x8 | x8 | x8 | x8 | x8 | x8 | z2 E6 | x8 | x8 | x8 | x8 | x8 | x8 | %18
 z2 D4 z2 | x8 | x8 |] %21
V:3
 G,G,CC CCCC | G,CCC C[K:bass]A, C2 | G,G,B,B, B,B,[K:treble]DD | DD C6 | G,G,CC CCCC | %5
 G,CCC C[K:bass]A, C2 | A,A,G,G, G,G,[K:treble]G,B, | DD C6 | z2 C2- CG, C2 | z2 C2- CA, C2 | %10
 A,[K:bass]A,G,G, G,G,G,B, | DD C6 | G,G,CC CC C2 | G,_B,A,A, A,D A,2 | %14
 A,A,G,G, G,G,[K:treble]G,B, | DD C6 | z2 C2- CG, C2 | z2 C2- CA, C2 | z2 B,4 C2 | D2 C6- | %20
 C2 z2 z4 |] %21
V:4
 C,C,C,C, C,C,C,C, | C,E,F,F, F,F, F,2 | F,E,D,D, D,D,G,,G,, | G,,G,, C,6 | C,C,C,C, C,C,C,C, | %5
 C,E,F,F, F,F, F,2 | ^F,F, z2 z2 z G, | G,G, C,6 | z2 C,2- C,C, C,2 | z2 F,2- F,F, F,2 | %10
 ^F,F, z2 z2 z G, | G,G, C,6 | C,C,C,C, C,C, C,2 | C,C,F,F, F,F, F,2 | ^F,F, z2 z2 z G, | %15
 G,G, C,6 | z2 C,2- C,C, C,2 | z2 F,2- F,F, F,2 | z2 G,6 | G,2 C,6- | C,2 z2 z4 |] %21

